lib/svgs/unarchive.svg

<?xml version="1.0" encoding="UTF-8"?>
<svg width="16px" height="16px" viewBox="0 0 16 16" version="1.1" xmlns="http://www.w3.org/2000/svg" xmlns:xlink="http://www.w3.org/1999/xlink">
    <!-- Generator: sketchtool 51.3 (57544) - http://www.bohemiancoding.com/sketch -->
    <title>app/unarchive</title>
    <desc>Created with sketchtool.</desc>
    <defs></defs>
    <g id="Icons" stroke="none" stroke-width="1" fill="none" fill-rule="evenodd">
        <g id="Web" transform="translate(-51.000000, -552.000000)" fill="#000000">
            <g id="app/unarchive" transform="translate(51.000000, 552.000000)">
                <path d="M0.572109654,4.65148987 C0.256142217,4.65148987 0,4.39534765 0,4.07938021 L0,0.812634088 C0,0.496666651 0.256142217,0.240524434 0.572109654,0.240524434 L15.4278903,0.240524434 C15.7438578,0.240524434 16,0.496666651 16,0.812634088 L16,4.07938021 C16,4.39534765 15.7438578,4.65148987 15.4278903,4.65148987 L14.8131585,4.65148987 L14.8131585,15.1873659 C14.8131585,15.5033333 14.5570163,15.7594756 14.2410489,15.7594756 L1.75856973,15.7594756 C1.44260229,15.7594756 1.18646007,15.5033333 1.18646007,15.1873659 L1.18646007,4.65148987 L0.572109654,4.65148987 L0.572109654,4.65148987 L0.572109654,4.65148987 M13.6689394,14.6248836 L13.6689392,4.65148987 L2.33067938,4.65148987 L2.3306794,14.6152563 M1.19451275,1.38474377 L1.19451275,3.50727054 L14.8557803,3.50727054 L14.8557803,1.38474377 M7.42769964,8.62844161 L6.47557956,9.58056169 C6.25215685,9.8039844 5.88991705,9.8039844 5.66649433,9.58056169 C5.44307162,9.35713897 5.44307162,8.99489917 5.66649433,8.77147645 L7.59545738,6.8425134 C7.8188801,6.61909069 8.1811199,6.61909069 8.40454262,6.8425134 L10.3335057,8.77147645 C10.5569284,8.99489917 10.5569284,9.35713897 10.3335057,9.58056169 C10.1100829,9.8039844 9.74784315,9.8039844 9.52442044,9.58056169 L8.57191895,8.6280602 L8.57191895,11.3147557 C8.57191895,11.6307231 8.31577673,11.8868653 7.9998093,11.8868653 C7.68384186,11.8868653 7.42769964,11.6307231 7.42769964,11.3147557 L7.42769964,8.62844161" id="Shape"></path>
            </g>
        </g>
    </g>
</svg>

<svg xmlns="http://www.w3.org/2000/svg" viewBox="0 0 16 16">
    <path d="M.572 4.651A.572.572 0 0 1 0 4.08V.813C0 .497.256.24.572.24h14.856c.316 0 .572.256.572.572v3.266a.572.572 0 0 1-.572.572h-.615v10.536a.572.572 0 0 1-.572.572H1.759a.572.572 0 0 1-.573-.572V4.651H.572m13.097 9.974V4.65H2.33v9.964M1.195 1.385v2.122h13.66V1.385M7.429 8.628l-.952.953a.572.572 0 0 1-.81-.81l1.93-1.928a.572.572 0 0 1 .809 0l1.929 1.928a.572.572 0 0 1-.81.81l-.952-.953v2.687a.572.572 0 0 1-1.144 0V8.628"/>
</svg>
